!! 00000] TT[WS
!!!OTL: Da qiuqian
!!!ARE: Asia, China,ÿShanxi Wutai
!! Ethnic Group: Han
!! WI, 126 (1)
!!!SCT: J0150
!!!YEM: Copyright 1995, estate of Helmut Schaffrath.
**kern
*ICvox
*Ivox
*M2/4
*k[b-e-]
*B-:
{4ddd
8ddd
8ccc
=1
4ddd
4ddd
=2
8ddd
8fff
8ddd
16ddd
16ccc
=3
8ddd
16ddd
16ccc
4bb-}
=4
{16ddd
16fff
8gg
8.bb-
16ccc
=5
8ddd
16ddd
16ddd
8.ccc
16ddd
=6
8ccc
8bb-
8gg
8ff
=7
2dd}
=8
{8.ff
16gg
4bb-
=9
8ccc
8aa
8gg
8ff
=10
8dd
8ff
8ff
16ff
16cc
=11
2dd}
=12
{8.bb-
16bb-
16gg
16bb-
16gg
16bb-
=13
8dd
8ff
4dd
=14
8.ccc
16bb-
4ccc}
=15
{8.bb-
16ccc
8ddd
8fff
=16
8ddd
8ccc
8bb-
8ddd
=17
8ccc
8bb-
4gg
=18
8.bb-
16gg
8ff
8dd
=19
2ff}
==
!!!AGN: Xiaodiao. Qingge
!!!ONB: ESAC (Essen Associative Code) Database: CHINA
!!!AMT: simple duple
!!!AIN: vox
!!!EED: Helmut Schaffrath
!!!EEV: 1.0
*-
